icons/svg/24x24/minimize alt1/outline.svg

<svg width="24" height="24" fill="none" xmlns="http://www.w3.org/2000/svg">
  <path fill-rule="evenodd" clip-rule="evenodd" d="M5.293 17.293l-3 3a.999.999 0 101.414 1.414l3-3L9 21v-6H3l2.293 2.293zm16.414-15a.999.999 0 00-1.414 0l-3 3L15 3v6h6l-2.293-2.293 3-3a.999.999 0 000-1.414zM8 9a1 1 0 011-1h3V6H9C7.346 6 6 7.346 6 9v3h2V9zm8 3h2v3c0 1.654-1.346 3-3 3h-3v-2h3a1 1 0 001-1v-3z" fill="#000"/>
</svg>

<svg xmlns="http://www.w3.org/2000/svg" width="24" height="24" viewBox="0 0 24 24">
  <path fill-rule="evenodd" d="M6.293,16.293 L3.293,19.293 C2.902,19.684 2.902,20.316 3.293,20.707 C3.488,20.902 3.744,21 4,21 C4.256,21 4.512,20.902 4.707,20.707 L7.707,17.707 L10,20 L10,14 L4,14 L6.293,16.293 Z M20.707,3.293 C20.316,2.902 19.684,2.902 19.293,3.293 L16.293,6.293 L14,4 L14,10 L20,10 L17.707,7.707 L20.707,4.707 C21.098,4.316 21.098,3.684 20.707,3.293 L20.707,3.293 Z M8,9 C8,8.448 8.448,8 9,8 L12,8 L12,6 L9,6 C7.346,6 6,7.346 6,9 L6,12 L8,12 L8,9 Z M16,12 L18,12 L18,15 C18,16.654 16.654,18 15,18 L12,18 L12,16 L15,16 C15.552,16 16,15.552 16,15 L16,12 Z"/>
</svg>
